assets/img/common/page-arrow-next.svg

<svg fill="none" height="20" viewBox="0 0 10 20" width="10" xmlns="http://www.w3.org/2000/svg"><path clip-rule="evenodd" d="m.141153 19.8517c-.1882041-.1977-.1882041-.5183 0-.7161l8.695367-9.1356-8.695367-9.135642c-.1882041-.197733-.1882041-.518324 0-.716057.188205-.1977347.493345-.1977347.681549 0l9.036148 9.493669c.09037.09496.14115.22374.14115.35803 0 .1343-.05078.2631-.14115.358l-9.036148 9.4937c-.188204.1977-.493344.1977-.681549 0z" fill="#000" fill-rule="evenodd"/></svg>

<svg width="10" height="20" viewBox="0 0 10 20" fill="none" xmlns="http://www.w3.org/2000/svg">
  <path fill-rule="evenodd" clip-rule="evenodd"
    d="M0.141153 19.8517C-0.0470511 19.654 -0.0470511 19.3334 0.141153 19.1356L8.83652 10L0.141153 0.864358C-0.0470511 0.666625 -0.0470511 0.346034 0.141153 0.148301C0.329358 -0.0494337 0.634498 -0.0494337 0.822702 0.148301L9.85885 9.64197C9.94922 9.73693 10 9.86571 10 10C10 10.1343 9.94922 10.2631 9.85885 10.358L0.822702 19.8517C0.634498 20.0494 0.329358 20.0494 0.141153 19.8517Z"
    fill="black" />
</svg>
